icons/svg/24x24/bookmark/outline.svg

<svg xmlns="http://www.w3.org/2000/svg" width="24" height="24" viewBox="0 0 24 24">
  <path fill-rule="evenodd" d="M16,18.2627 L13.109,16.3357 C12.773,16.1127 12.387,15.9997 12,15.9997 C11.613,15.9997 11.227,16.1127 10.891,16.3357 L8,18.2627 L8,4.9997 C8,4.1297 8.627,3.9997 9,3.9997 L15,3.9997 C15.373,3.9997 16,4.1297 16,4.9997 L16,18.2627 Z M15,1.9997 L9,1.9997 C7.294,1.9997 6,3.2117 6,4.9997 L6,21.9997 L12,17.9997 L18,21.9997 L18,4.9997 C18,3.2117 16.706,1.9997 15,1.9997 L15,1.9997 Z"/>
</svg>

<svg width="24" height="24" fill="none" xmlns="http://www.w3.org/2000/svg">
  <path fill-rule="evenodd" clip-rule="evenodd" d="M16 18.263l-2.891-1.927a2.004 2.004 0 00-2.218 0L8 18.263V5c0-.87.627-1 1-1h6c.373 0 1 .13 1 1v13.263zM15 2H9C7.294 2 6 3.212 6 5v17l6-4 6 4V5c0-1.788-1.294-3-3-3z" fill="#000"/>
</svg>
